X:864
T:Reel 864
M:4/4
K:Dmix
L:1/8
cBAd cBAB|cAGF EFGc|Ad (3dcd cAGB||Addc deed:||2cBce d2d2|agab a2ag|fged cdef|agag a2ag|fage ddd2|agag a2af|gfef gbag|f2fd ecce|dcAd cAA2|
